svgs/covid_cert.svg

<svg viewBox="0 0 192 192" xml:space="preserve" style="fill-rule:evenodd;clip-rule:evenodd;stroke-linejoin:round;stroke-miterlimit:2" xmlns="http://www.w3.org/2000/svg"><path d="M553.604 376h-43.871v-94.912h68.253v55.242c0 3.311 2.689 6 6 6 3.312 0 6-2.689 6-6v-55.242c0-6.623-5.377-12-12-12h-68.253c-6.623 0-12 5.377-12 12V376c0 6.623 5.377 12 12 12h43.871c3.311 0 6-2.689 6-6s-2.689-6-6-6Zm6.025-7.484 9.414 9.414a6 6 0 0 0 8.485 0l20.715-20.715a6.004 6.004 0 0 0 0-8.485 6.005 6.005 0 0 0-8.486 0l-16.471 16.472-5.171-5.171a6.003 6.003 0 0 0-8.486 0 6.004 6.004 0 0 0 0 8.485Zm3.533-49.834h-8.534a6 6 0 0 0-6 6v8.534c0 3.311 2.689 6 6 6 3.312 0 6-2.689 6-6v-2.534h2.534c3.311 0 6-2.688 6-6 0-3.311-2.689-6-6-6Zm-24.071 6a6 6 0 0 0-6-6h-8.534a6 6 0 0 0-6 6v8.534a6 6 0 0 0 6 6h8.534a6 6 0 0 0 6-6v-8.534Zm30.071-30.071a6 6 0 0 0-6-6h-8.534a6 6 0 0 0-6 6v8.534a6 6 0 0 0 6 6h8.534a6 6 0 0 0 6-6v-8.534Zm-30.071 0a6 6 0 0 0-6-6h-8.534a6 6 0 0 0-6 6v8.534a6 6 0 0 0 6 6h8.534a6 6 0 0 0 6-6v-8.534ZM465.144 228c-7.008 0-14.017 1.18-21.024 3.493a6 6 0 0 0-4.12 5.698c0 17.158.58 34.982 22.725 44.735a6.006 6.006 0 0 0 4.837 0c22.145-9.753 22.725-27.577 22.725-44.735a6 6 0 0 0-4.12-5.698C479.16 229.18 472.151 228 465.144 228Zm0 12c4.383 0 8.766.574 13.149 1.687-.042 10.69-.965 21.523-13.149 28.079-12.185-6.555-13.107-17.389-13.15-28.079 4.384-1.113 8.766-1.687 13.15-1.687Z" style="fill-rule:evenodd;clip-rule:evenodd;stroke-linejoin:round;stroke-miterlimit:2" transform="translate(-424 -212)"/></svg>

<?xml version="1.0" encoding="UTF-8" standalone="no"?>
<svg
   width="100%"
   height="100%"
   viewBox="0 0 192 192"
   version="1.1"
   xml:space="preserve"
   style="fill-rule:evenodd;clip-rule:evenodd;stroke-linejoin:round;stroke-miterlimit:2;"
   id="svg10"
   sodipodi:docname="covid_cert.svg"
   inkscape:version="1.2.1 (9c6d41e410, 2022-07-14)"
   xmlns:inkscape="http://www.inkscape.org/namespaces/inkscape"
   xmlns:sodipodi="http://sodipodi.sourceforge.net/DTD/sodipodi-0.dtd"
   xmlns="http://www.w3.org/2000/svg"
   xmlns:svg="http://www.w3.org/2000/svg"><defs
   id="defs14" /><sodipodi:namedview
   id="namedview12"
   pagecolor="#ffffff"
   bordercolor="#000000"
   borderopacity="0.25"
   inkscape:showpageshadow="2"
   inkscape:pageopacity="0.0"
   inkscape:pagecheckerboard="0"
   inkscape:deskcolor="#d1d1d1"
   showgrid="false"
   inkscape:zoom="5.3489583"
   inkscape:cx="96"
   inkscape:cy="95.906524"
   inkscape:window-width="1274"
   inkscape:window-height="1303"
   inkscape:window-x="1282"
   inkscape:window-y="36"
   inkscape:window-maximized="0"
   inkscape:current-layer="svg10" />
    <path
   d="M553.604,376L509.733,376L509.733,281.088C509.733,281.088 577.986,281.088 577.986,281.088L577.986,336.33C577.986,339.641 580.675,342.33 583.986,342.33C587.298,342.33 589.986,339.641 589.986,336.33L589.986,281.088C589.986,274.465 584.609,269.088 577.986,269.088L509.733,269.088C503.11,269.088 497.733,274.465 497.733,281.088C497.733,281.088 497.733,376 497.733,376C497.733,382.623 503.11,388 509.733,388L553.604,388C556.915,388 559.604,385.311 559.604,382C559.604,378.689 556.915,376 553.604,376ZM559.629,368.516L569.043,377.93C571.386,380.273 575.185,380.273 577.528,377.93L598.243,357.215C600.584,354.874 600.584,351.072 598.243,348.73C595.901,346.389 592.099,346.389 589.757,348.73L573.286,365.202C573.286,365.202 568.115,360.031 568.115,360.031C565.773,357.689 561.971,357.689 559.629,360.031C557.288,362.372 557.288,366.174 559.629,368.516ZM563.162,318.682L554.628,318.682C551.315,318.682 548.628,321.369 548.628,324.682L548.628,333.216C548.628,336.527 551.317,339.216 554.628,339.216C557.94,339.216 560.628,336.527 560.628,333.216L560.628,330.682C560.628,330.682 563.162,330.682 563.162,330.682C566.473,330.682 569.162,327.994 569.162,324.682C569.162,321.371 566.473,318.682 563.162,318.682ZM539.091,324.682C539.091,321.369 536.405,318.682 533.091,318.682L524.557,318.682C521.244,318.682 518.557,321.369 518.557,324.682L518.557,333.216C518.557,336.53 521.244,339.216 524.557,339.216L533.091,339.216C536.405,339.216 539.091,336.53 539.091,333.216L539.091,324.682ZM569.162,294.611C569.162,291.298 566.476,288.611 563.162,288.611L554.628,288.611C551.315,288.611 548.628,291.298 548.628,294.611L548.628,303.145C548.628,306.459 551.315,309.145 554.628,309.145L563.162,309.145C566.476,309.145 569.162,306.459 569.162,303.145L569.162,294.611ZM539.091,294.611C539.091,291.298 536.405,288.611 533.091,288.611L524.557,288.611C521.244,288.611 518.557,291.298 518.557,294.611L518.557,303.145C518.557,306.459 521.244,309.145 524.557,309.145L533.091,309.145C536.405,309.145 539.091,306.459 539.091,303.145L539.091,294.611ZM465.144,228C458.136,228 451.127,229.18 444.12,231.493C441.661,232.304 440,234.601 440,237.191C440,254.349 440.58,272.173 462.725,281.926C464.266,282.604 466.021,282.604 467.562,281.926C489.707,272.173 490.287,254.349 490.287,237.191C490.287,234.601 488.626,232.304 486.167,231.493C479.16,229.18 472.151,228 465.144,228ZM465.144,240C469.527,240 473.91,240.574 478.293,241.687C478.251,252.377 477.328,263.21 465.144,269.766C452.959,263.211 452.037,252.377 451.994,241.687C456.378,240.574 460.76,240 465.144,240Z"
   id="path4"
   style="fill-rule:evenodd;clip-rule:evenodd;stroke-linejoin:round;stroke-miterlimit:2"
   transform="translate(-424,-212)"
   inkscape:label="covid_cert_form" />
</svg>
